icon-themes/breeze_svg/res/odg_16_8.svg

<svg viewBox="0 0 16 16" xmlns="http://www.w3.org/2000/svg"><path d="m4 2c-1.1080048 0-2 .8919952-2 2s.8919952 2 2 2c.5029994 0 .9559183-.1897259 1.3066406-.4941406.4307747.7341482.6933594 1.5773817.6933594 2.4941406 0 .9167591-.2625847 1.759992-.6933594 2.494141-.3507223-.304416-.8036412-.494141-1.3066406-.494141-1.1080048 0-2 .892-2 2s.8919952 2 2 2c.7410731 0 1.3790496-.404201 1.7246094-1h5.2753906v1h3v-3h-3v1h-5c0-.196952-.0372723-.382995-.0898438-.5625.6834107-.972095 1.0898438-2.1533702 1.0898438-3.4375 0-1.2798972-.4166183-2.4472717-1.0957031-3.4179688.0563356-.1852567.0957031-.3778797.0957031-.5820312h4v2h4v-4h-4v1h-4.2753906c-.3455598-.5957989-.9835363-1-1.7246094-1zm0 1c.5540048 0 1 .4459952 1 1s-.4459952 1-1 1-1-.4459952-1-1 .4459952-1 1-1zm7 0h2v2h-2zm-7 8c.5540048 0 1 .446 1 1s-.4459952 1-1 1-1-.446-1-1 .4459952-1 1-1zm8 1h1v1h-1z" fill="#04896a"/></svg>

<svg xmlns="http://www.w3.org/2000/svg" viewBox="0 0 16 16">
 <path 
     style="fill:#04896a" 
     d="M 4 2 C 2.8919952 2 2 2.8919952 2 4 C 2 5.1080048 2.8919952 6 4 6 C 4.5029994 6 4.9559183 5.8102741 5.3066406 5.5058594 C 5.7374153 6.2400076 6 7.0832411 6 8 C 6 8.9167591 5.7374153 9.759992 5.3066406 10.494141 C 4.9559183 10.189725 4.5029994 10 4 10 C 2.8919952 10 2 10.892 2 12 C 2 13.108 2.8919952 14 4 14 C 4.7410731 14 5.3790496 13.595799 5.7246094 13 L 11 13 L 11 14 L 14 14 L 14 11 L 11 11 L 11 12 L 6 12 C 6 11.803048 5.9627277 11.617005 5.9101562 11.4375 C 6.5935669 10.465405 7 9.2841298 7 8 C 7 6.7201028 6.5833817 5.5527283 5.9042969 4.5820312 C 5.9606325 4.3967745 6 4.2041515 6 4 L 10 4 L 10 6 L 14 6 L 14 2 L 10 2 L 10 3 L 5.7246094 3 C 5.3790496 2.4042011 4.7410731 2 4 2 z M 4 3 C 4.5540048 3 5 3.4459952 5 4 C 5 4.5540048 4.5540048 5 4 5 C 3.4459952 5 3 4.5540048 3 4 C 3 3.4459952 3.4459952 3 4 3 z M 11 3 L 13 3 L 13 5 L 11 5 L 11 3 z M 4 11 C 4.5540048 11 5 11.446 5 12 C 5 12.554 4.5540048 13 4 13 C 3.4459952 13 3 12.554 3 12 C 3 11.446 3.4459952 11 4 11 z M 12 12 L 13 12 L 13 13 L 12 13 L 12 12 z "
     />
 </svg>
